X: 40535
T: Tommy McCarthy's
R: jig
M: 6/8
K: Dmixolydian
DEG|:A3 zdc|Adc AFD|~G3 cAG|~E3 cBc|
A3 zdc|Adc AFD|EFG GFG|1 AFD DEG:|2 AFD DFA||
|:d^cd d2a|fdB cAF|~G3 cAG|~E3 cBc|
d^cd d2a|fdB cAF|GAB cAG|AFD DFA:|
|:d^cd def|~g3 gfe|~f3 fed|eAA age|
d^cd dfa|~g3 efg|aba ge^c|1 ed^c d3:|2 ed^c d^cA||
|:AGG AGA|GEG cBc|AGG AEE|AGE FDD|
AGG AGA|GEG cBc|ded cAG|1 AFD D2 A:|2 AFD D3||

